src/assets/images/industries/liquids_white.svg

<svg width="32" height="43" viewBox="0 0 32 43" fill="none" xmlns="http://www.w3.org/2000/svg">
<mask id="mask0_1968_6537" style="mask-type:alpha" maskUnits="userSpaceOnUse" x="0" y="0" width="32" height="43">
<path d="M1.93827 21.2701V3.72527C1.93827 2.64374 2.84279 1.80255 4.00575 1.80255H16.5399C17.7028 1.80255 18.6074 2.64374 18.6074 3.72527V5.76816C18.7366 5.76816 18.995 5.76816 19.1242 5.76816C19.6411 5.76816 20.0287 5.76816 20.5456 5.76816V3.72527C20.5456 1.68238 18.7366 0 16.5399 0H4.00575C1.80905 0 0 1.68238 0 3.72527V42.9996C0.646089 42.9996 0.308419 42.9996 0.954508 42.9996H1.93827V21.2701Z" fill="black"/>
<path d="M9.81997 9.13166C8.01093 9.73251 6.71875 11.2947 6.71875 13.0973V16.3419H31.5286V12.9771C31.5286 11.1746 30.3656 9.61234 28.5565 9.01149C22.4833 6.9686 16.1516 7.08877 9.81997 9.13166Z" fill="black"/>
<path d="M31.6578 18.1465H6.71875V29.9231C7.9952 29.8372 9.43232 22.2323 10.8537 22.7129C13.3089 23.5541 14.8595 25.7172 14.8595 28.1206L6.71875 29.9231H31.5286V18.1465H31.6578Z" fill="black"/>
<path d="M31.5683 31.3857H6.71875V43.0001H31.5683V31.3857Z" fill="black"/>
<path d="M19.2217 20.623H6.79688V29.9145H19.2217V20.623Z" fill="black"/>
</mask>
<g mask="url(#mask0_1968_6537)">
<rect x="-10.7656" y="-5.41992" width="56.3257" height="58.8461" fill="white"/>
</g>
</svg>

<svg xmlns="http://www.w3.org/2000/svg" width="32" height="43" fill="none"><mask id="a" width="32" height="43" x="0" y="0" maskUnits="userSpaceOnUse" style="mask-type:alpha"><path fill="#000" d="M1.938 21.27V3.725c0-1.081.905-1.922 2.068-1.922H16.54c1.163 0 2.067.84 2.067 1.922v2.043h1.939V3.725C20.546 1.682 18.736 0 16.54 0H4.006C1.809 0 0 1.682 0 3.725V43h1.938z"/><path fill="#000" d="M9.82 9.132c-1.81.6-3.101 2.163-3.101 3.965v3.245h24.81v-3.365c0-1.802-1.163-3.365-2.972-3.966-6.074-2.042-12.405-1.922-18.737.12M31.658 18.147H6.718v11.776c1.277-.086 2.714-7.69 4.136-7.21 2.455.841 4.006 3.004 4.006 5.408l-8.141 1.802h24.81V18.147zM31.568 31.386H6.718V43h24.85z"/><path fill="#000" d="M19.222 20.623H6.797v9.292h12.425z"/></mask><g mask="url(#a)"><path fill="#fff" d="M-10.766-5.42H45.56v58.846h-56.326z"/></g></svg>
